assets/marketplace.svg

<svg fill="none" height="22" viewBox="0 0 25 22" width="25" xmlns="http://www.w3.org/2000/svg"><g fill="#000"><path d="m23.5091 5.3681c-.3494-.46585-.8928-.73759-1.4752-.73759h-11.2191c-.5823 0-1.1646.27174-1.51398.77641-.34939.46584-.42703 1.12579-.23293 1.66928l1.35871 3.9209c.2718.7376.9705 1.2422 1.7469 1.2422h5.1632c.8152 0 1.5528-.5435 1.7857-1.3587l.7764-2.4845c.0777-.31057-.0776-.62113-.3882-.73759-.3105-.07764-.6211.07764-.7376.3882l-.7764 2.52329c-.0776.3106-.3494.5047-.6599.5047h-1.8246v-2.83388c0-.31057-.2717-.58231-.5823-.58231s-.5823.27174-.5823.58231v2.83388h-2.174c-.2717 0-.5435-.1941-.6599-.4658l-1.3587-3.92091c-.0777-.1941-.0389-.42702.0776-.62112.1165-.19411.3494-.27175.5435-.27175h11.2191c.1941 0 .4271.11646.5435.27175.1165.15528.1553.3882.1165.5823l-1.8246 6.71593c-.0776.3106-.3494.5047-.6599.5047h-10.63686c-.27174 0-.54349-.1941-.65995-.4659l-3.72677-10.6756c-.1941-.58231-.65995-1.00933-1.28108-1.16462l-2.13513-.54348c-.31056-.077644-.62113.07764-.69877.3882-.116459.31057.07764.62113.38821.73759l2.17395.58231c.23292.03882.3882.23292.46584.42703l3.72678 10.67567c.27174.7376.97051 1.2422 1.74692 1.2422h10.71446c.8152 0 1.5528-.5435 1.7857-1.3587l1.8246-6.71594c.1165-.58231 0-1.16462-.3494-1.63046z"/><path clip-rule="evenodd" d="m10.4266 10.9971-1.35871-3.9209c-.1941-.54349-.11646-1.20344.23293-1.66928.34938-.50467.93168-.77641 1.51398-.77641h11.2191c.5824 0 1.1258.27174 1.4752.73759.3494.46584.4659 1.04815.3494 1.63046l-1.8246 6.71594c-.2329.8152-.9705 1.3587-1.7857 1.3587h-10.71446c-.77641 0-1.47518-.5046-1.74692-1.2422l-3.72678-10.67567c-.07764-.19411-.23292-.38821-.46584-.42703l-2.17395-.58231c-.31057-.11646-.504669-.42702-.38821-.73759.07764-.31056.38821-.465844.69877-.3882l2.13513.54348c.62113.15529 1.08698.58231 1.28108 1.16462l3.72677 10.6756c.11646.2718.38821.4659.65995.4659h10.63686c.3105 0 .5823-.1941.6599-.5047l1.8246-6.71593c.0388-.1941 0-.42702-.1165-.5823-.1164-.15529-.3494-.27175-.5435-.27175h-11.2191c-.1941 0-.427.07764-.5435.27175-.1165.1941-.1553.42702-.0776.62112l1.3587 3.92091c.1164.2717.3882.4658.6599.4658h2.174v-2.83388c0-.31057.2717-.58231.5823-.58231s.5823.27174.5823.58231v2.83388h1.8246c.3105 0 .5823-.1941.6599-.5047l.7764-2.52329c.1165-.31056.4271-.46584.7376-.3882.3106.11646.4659.42702.3882.73759l-.7764 2.4845c-.2329.8152-.9705 1.3587-1.7857 1.3587h-5.1632c-.7764 0-1.4751-.5046-1.7469-1.2422zm8.8874-.0591c-.2582.8998-1.0737 1.5013-1.9773 1.5013h-5.1632c-.8638 0-1.6351-.5604-1.9346-1.3731l-.0013-.0036-1.35806-3.91913c-.0001-.00031.00011.0003 0 0-.21402-.60025-.13167-1.33021.25899-1.8535.39016-.56123 1.03537-.85946 1.67627-.85946h11.2191c.6453 0 1.2481.30138 1.6352.81759.3862.51494.5122 1.15611.3855 1.78968l-.0026.01334-1.8257 6.71838c-.2575.9011-1.0737 1.5037-1.9781 1.5037h-10.71446c-.86386 0-1.63517-.5604-1.93459-1.3731l-.00119-.0032-3.72518-10.67119c-.06532-.16068-.17788-.27787-.31146-.30013l-.00953-.00159-2.19267-.58732-.0091-.00341c-.38135-.14301-.666071-.54725-.509167-.98439.113092-.426671.541537-.621933.938467-.522701l2.13513.543491c-.00014-.00004.00014.00003 0 0 .68437.17123 1.20512.64537 1.42185 1.29403l3.72387 10.66731c.09056.205.29392.3388.47357.3388h10.63686c.2254 0 .4121-.1379.4659-.3532l.001-.0039 1.8226-6.70889c.0277-.14725-.0061-.3164-.0815-.41694-.0358-.04775-.0965-.09745-.1721-.13522-.0755-.03777-.1517-.05653-.2114-.05653h-11.2191c-.1544 0-.305.06304-.372.17465-.0933.15547-.1121.32237-.0634.44395l.0035.00872 1.356 3.91366c.0906.2049.2938.3386.4734.3386h1.974v-2.63388c0-.42103.3613-.78231.7823-.78231s.7823.36128.7823.78231v2.63388h1.6246c.2254 0 .4121-.1379.4659-.3532l.0026-.0104.7802-2.53474c.1528-.40749.5663-.61373.9737-.51188l.0111.00276.0106.004c.4075.15281.6139.56596.512.97337l-.0028.01124z" fill-rule="evenodd"/><path d="m17.9189 16.0437c-1.3975 0-2.5233 1.1258-2.5233 2.5234 0 1.3975 1.1258 2.5233 2.5233 2.5233 1.3976 0 2.5234-1.1258 2.5234-2.5233 0-1.3976-1.1647-2.5234-2.5234-2.5234zm0 3.8821c-.7376 0-1.3587-.6211-1.3587-1.3587s.6211-1.3587 1.3587-1.3587 1.3587.6211 1.3587 1.3587-.6211 1.3587-1.3587 1.3587z"/><path clip-rule="evenodd" d="m15.1956 18.5671c0-1.508 1.2153-2.7234 2.7233-2.7234 1.4672 0 2.7234 1.2134 2.7234 2.7234 0 1.508-1.2154 2.7233-2.7234 2.7233s-2.7233-1.2153-2.7233-2.7233zm1.5646 0c0 .6271.5316 1.1587 1.1587 1.1587.6272 0 1.1588-.5316 1.1588-1.1587 0-.6272-.5316-1.1587-1.1588-1.1587-.6271 0-1.1587.5315-1.1587 1.1587zm-1.3646 0c0-1.3976 1.1258-2.5234 2.5233-2.5234 1.3587 0 2.5234 1.1258 2.5234 2.5234 0 1.3975-1.1258 2.5233-2.5234 2.5233-1.3975 0-2.5233-1.1258-2.5233-2.5233zm1.1646 0c0 .7376.6211 1.3587 1.3587 1.3587s1.3587-.6211 1.3587-1.3587-.6211-1.3587-1.3587-1.3587-1.3587.6211-1.3587 1.3587z" fill-rule="evenodd"/><path d="m11.9406 16.0437c-1.3975 0-2.52333 1.1258-2.52333 2.5234 0 1.3975 1.12583 2.5233 2.52333 2.5233s2.5233-1.1258 2.5233-2.5233c0-1.3976-1.1258-2.5234-2.5233-2.5234zm0 3.8821c-.7376 0-1.3587-.6211-1.3587-1.3587s.6211-1.3587 1.3587-1.3587 1.3587.6211 1.3587 1.3587-.6211 1.3587-1.3587 1.3587z"/><path clip-rule="evenodd" d="m9.21727 18.5671c0-1.508 1.21533-2.7234 2.72333-2.7234s2.7233 1.2154 2.7233 2.7234-1.2153 2.7233-2.7233 2.7233-2.72333-1.2153-2.72333-2.7233zm1.56463 0c0 .6271.5316 1.1587 1.1587 1.1587s1.1587-.5316 1.1587-1.1587c0-.6272-.5316-1.1587-1.1587-1.1587s-1.1587.5315-1.1587 1.1587zm-1.36463 0c0-1.3976 1.12583-2.5234 2.52333-2.5234s2.5233 1.1258 2.5233 2.5234c0 1.3975-1.1258 2.5233-2.5233 2.5233s-2.52333-1.1258-2.52333-2.5233zm1.16463 0c0 .7376.6211 1.3587 1.3587 1.3587s1.3587-.6211 1.3587-1.3587-.6211-1.3587-1.3587-1.3587-1.3587.6211-1.3587 1.3587z" fill-rule="evenodd"/></g></svg>

<svg width="25" height="22" viewBox="0 0 25 22" fill="none" xmlns="http://www.w3.org/2000/svg">
<path d="M23.5091 5.3681C23.1597 4.90225 22.6163 4.63051 22.0339 4.63051H10.8148C10.2325 4.63051 9.6502 4.90225 9.30082 5.40692C8.95143 5.87276 8.87379 6.53271 9.06789 7.0762L10.4266 10.9971C10.6984 11.7347 11.3971 12.2393 12.1735 12.2393H17.3367C18.1519 12.2393 18.8895 11.6958 19.1224 10.8806L19.8988 8.3961C19.9765 8.08553 19.8212 7.77497 19.5106 7.65851C19.2001 7.58087 18.8895 7.73615 18.773 8.04671L17.9966 10.57C17.919 10.8806 17.6472 11.0747 17.3367 11.0747H15.5121V8.24082C15.5121 7.93025 15.2404 7.65851 14.9298 7.65851C14.6192 7.65851 14.3475 7.93025 14.3475 8.24082V11.0747H12.1735C11.9018 11.0747 11.63 10.8806 11.5136 10.6089L10.1549 6.68799C10.0772 6.49389 10.116 6.26097 10.2325 6.06687C10.349 5.87276 10.5819 5.79512 10.776 5.79512H21.9951C22.1892 5.79512 22.4222 5.91158 22.5386 6.06687C22.6551 6.22215 22.6939 6.45507 22.6551 6.64917L20.8305 13.3651C20.7529 13.6757 20.4811 13.8698 20.1706 13.8698H9.53374C9.262 13.8698 8.99025 13.6757 8.87379 13.4039L5.14702 2.7283C4.95292 2.14599 4.48707 1.71897 3.86594 1.56368L1.73081 1.0202C1.42025 0.942556 1.10968 1.09784 1.03204 1.4084C0.915581 1.71897 1.10968 2.02953 1.42025 2.14599L3.5942 2.7283C3.82712 2.76712 3.9824 2.96122 4.06004 3.15533L7.78682 13.831C8.05856 14.5686 8.75733 15.0732 9.53374 15.0732H20.2482C21.0634 15.0732 21.801 14.5297 22.0339 13.7145L23.8585 6.99856C23.975 6.41625 23.8585 5.83394 23.5091 5.3681Z" fill="black"/>
<path fill-rule="evenodd" clip-rule="evenodd" d="M10.4266 10.9971L9.06789 7.0762C8.87379 6.53271 8.95143 5.87276 9.30082 5.40692C9.6502 4.90225 10.2325 4.63051 10.8148 4.63051H22.0339C22.6163 4.63051 23.1597 4.90225 23.5091 5.3681C23.8585 5.83394 23.975 6.41625 23.8585 6.99856L22.0339 13.7145C21.801 14.5297 21.0634 15.0732 20.2482 15.0732H9.53374C8.75733 15.0732 8.05856 14.5686 7.78682 13.831L4.06004 3.15533C3.9824 2.96122 3.82712 2.76712 3.5942 2.7283L1.42025 2.14599C1.10968 2.02953 0.915581 1.71897 1.03204 1.4084C1.10968 1.09784 1.42025 0.942556 1.73081 1.0202L3.86594 1.56368C4.48707 1.71897 4.95292 2.14599 5.14702 2.7283L8.87379 13.4039C8.99025 13.6757 9.262 13.8698 9.53374 13.8698H20.1706C20.4811 13.8698 20.7529 13.6757 20.8305 13.3651L22.6551 6.64917C22.6939 6.45507 22.6551 6.22215 22.5386 6.06687C22.4222 5.91158 22.1892 5.79512 21.9951 5.79512H10.776C10.5819 5.79512 10.349 5.87276 10.2325 6.06687C10.116 6.26097 10.0772 6.49389 10.1549 6.68799L11.5136 10.6089C11.63 10.8806 11.9018 11.0747 12.1735 11.0747H14.3475V8.24082C14.3475 7.93025 14.6192 7.65851 14.9298 7.65851C15.2404 7.65851 15.5121 7.93025 15.5121 8.24082V11.0747H17.3367C17.6472 11.0747 17.919 10.8806 17.9966 10.57L18.773 8.04671C18.8895 7.73615 19.2001 7.58087 19.5106 7.65851C19.8212 7.77497 19.9765 8.08553 19.8988 8.3961L19.1224 10.8806C18.8895 11.6958 18.1519 12.2393 17.3367 12.2393H12.1735C11.3971 12.2393 10.6984 11.7347 10.4266 10.9971ZM19.314 10.938C19.0558 11.8378 18.2403 12.4393 17.3367 12.4393H12.1735C11.3097 12.4393 10.5384 11.8789 10.2389 11.0662L10.2376 11.0626L8.87954 7.14347C8.87944 7.14316 8.87965 7.14377 8.87954 7.14347C8.66552 6.54322 8.74787 5.81326 9.13853 5.28997C9.52869 4.72874 10.1739 4.43051 10.8148 4.43051H22.0339C22.6792 4.43051 23.282 4.73189 23.6691 5.2481C24.0553 5.76304 24.1813 6.40421 24.0546 7.03778L24.052 7.05112L22.2263 13.7695C21.9688 14.6706 21.1526 15.2732 20.2482 15.2732H9.53374C8.66988 15.2732 7.89857 14.7128 7.59915 13.9001L7.59796 13.8969L3.87278 3.22571C3.80746 3.06503 3.6949 2.94784 3.56132 2.92558L3.55179 2.92399L1.35912 2.33667L1.35002 2.33326C0.96867 2.19025 0.683949 1.78601 0.840853 1.34887C0.953945 0.922199 1.38239 0.726937 1.77932 0.826169L3.91445 1.36966C3.91431 1.36962 3.91459 1.36969 3.91445 1.36966C4.59882 1.54089 5.11957 2.01503 5.3363 2.66369L9.06017 13.331C9.15073 13.536 9.35409 13.6698 9.53374 13.6698H20.1706C20.396 13.6698 20.5827 13.5319 20.6365 13.3166L20.6375 13.3127L22.4601 6.60381C22.4878 6.45656 22.454 6.28741 22.3786 6.18687C22.3428 6.13912 22.2821 6.08942 22.2065 6.05165C22.131 6.01388 22.0548 5.99512 21.9951 5.99512H10.776C10.6216 5.99512 10.471 6.05816 10.404 6.16977C10.3107 6.32524 10.2919 6.49214 10.3406 6.61372L10.3441 6.62244L11.7001 10.5361C11.7907 10.741 11.9939 10.8747 12.1735 10.8747H14.1475V8.24082C14.1475 7.81979 14.5088 7.45851 14.9298 7.45851C15.3508 7.45851 15.7121 7.81979 15.7121 8.24082V10.8747H17.3367C17.5621 10.8747 17.7488 10.7368 17.8026 10.5215L17.8052 10.5111L18.5854 7.97636C18.7382 7.56887 19.1517 7.36263 19.5591 7.46448L19.5702 7.46724L19.5808 7.47124C19.9883 7.62405 20.1947 8.0372 20.0928 8.44461L20.09 8.45585L19.314 10.938Z" fill="black"/>
<path d="M17.9189 16.0437C16.5214 16.0437 15.3956 17.1695 15.3956 18.5671C15.3956 19.9646 16.5214 21.0904 17.9189 21.0904C19.3165 21.0904 20.4423 19.9646 20.4423 18.5671C20.4423 17.1695 19.2776 16.0437 17.9189 16.0437ZM17.9189 19.9258C17.1813 19.9258 16.5602 19.3047 16.5602 18.5671C16.5602 17.8295 17.1813 17.2084 17.9189 17.2084C18.6565 17.2084 19.2776 17.8295 19.2776 18.5671C19.2776 19.3047 18.6565 19.9258 17.9189 19.9258Z" fill="black"/>
<path fill-rule="evenodd" clip-rule="evenodd" d="M15.1956 18.5671C15.1956 17.0591 16.4109 15.8437 17.9189 15.8437C19.3861 15.8437 20.6423 17.0571 20.6423 18.5671C20.6423 20.0751 19.4269 21.2904 17.9189 21.2904C16.4109 21.2904 15.1956 20.0751 15.1956 18.5671ZM16.7602 18.5671C16.7602 19.1942 17.2918 19.7258 17.9189 19.7258C18.5461 19.7258 19.0777 19.1942 19.0777 18.5671C19.0777 17.9399 18.5461 17.4084 17.9189 17.4084C17.2918 17.4084 16.7602 17.9399 16.7602 18.5671ZM15.3956 18.5671C15.3956 17.1695 16.5214 16.0437 17.9189 16.0437C19.2776 16.0437 20.4423 17.1695 20.4423 18.5671C20.4423 19.9646 19.3165 21.0904 17.9189 21.0904C16.5214 21.0904 15.3956 19.9646 15.3956 18.5671ZM16.5602 18.5671C16.5602 19.3047 17.1813 19.9258 17.9189 19.9258C18.6565 19.9258 19.2776 19.3047 19.2776 18.5671C19.2776 17.8295 18.6565 17.2084 17.9189 17.2084C17.1813 17.2084 16.5602 17.8295 16.5602 18.5671Z" fill="black"/>
<path d="M11.9406 16.0437C10.5431 16.0437 9.41727 17.1695 9.41727 18.5671C9.41727 19.9646 10.5431 21.0904 11.9406 21.0904C13.3381 21.0904 14.4639 19.9646 14.4639 18.5671C14.4639 17.1695 13.3381 16.0437 11.9406 16.0437ZM11.9406 19.9258C11.203 19.9258 10.5819 19.3047 10.5819 18.5671C10.5819 17.8295 11.203 17.2084 11.9406 17.2084C12.6782 17.2084 13.2993 17.8295 13.2993 18.5671C13.2993 19.3047 12.6782 19.9258 11.9406 19.9258Z" fill="black"/>
<path fill-rule="evenodd" clip-rule="evenodd" d="M9.21727 18.5671C9.21727 17.0591 10.4326 15.8437 11.9406 15.8437C13.4486 15.8437 14.6639 17.0591 14.6639 18.5671C14.6639 20.0751 13.4486 21.2904 11.9406 21.2904C10.4326 21.2904 9.21727 20.0751 9.21727 18.5671ZM10.7819 18.5671C10.7819 19.1942 11.3135 19.7258 11.9406 19.7258C12.5677 19.7258 13.0993 19.1942 13.0993 18.5671C13.0993 17.9399 12.5677 17.4084 11.9406 17.4084C11.3135 17.4084 10.7819 17.9399 10.7819 18.5671ZM9.41727 18.5671C9.41727 17.1695 10.5431 16.0437 11.9406 16.0437C13.3381 16.0437 14.4639 17.1695 14.4639 18.5671C14.4639 19.9646 13.3381 21.0904 11.9406 21.0904C10.5431 21.0904 9.41727 19.9646 9.41727 18.5671ZM10.5819 18.5671C10.5819 19.3047 11.203 19.9258 11.9406 19.9258C12.6782 19.9258 13.2993 19.3047 13.2993 18.5671C13.2993 17.8295 12.6782 17.2084 11.9406 17.2084C11.203 17.2084 10.5819 17.8295 10.5819 18.5671Z" fill="black"/>
</svg>
